X: 42061
T: Lady Helen's Jig
C: Michael Philp
B: RSCDS 42-6
R: jig
Z: John Chambers <jc:trillian.mit.edu>
M: 6/8
L: 1/8
%--------------------
K: A
|: E \
| "A"A2e "E7"dcB | "A"A3 E2A | "D"FGA "A"EAc | "Bm"edc "E7"Bcd | "A"c/d/ec "E7"dcB |
| "F#m"A3 "(A)"E2A | "D"FGA "E7"G/A/BG | "A"A3- Az :: "E"G | "F#m"F2C "C#7"CFG | "F#m"A3 "B7"F2A | "E"G2F EFG |
| "A"ABc "E7"Bcd | "A"cde "E7"dcB | "F#m"A3 "(A)"E2A | "D"FGA "E7"G/A/BG | "A"A3- Az :|
%%center Book42/42061-Lady_Helens_Jig-1.abc

%%sep 1 1 500
%%sep 1 1 500

